src/components/pages/careers/icons/grow.svg

<svg width="66" height="67" viewBox="0 0 66 67" fill="none" xmlns="http://www.w3.org/2000/svg">
<g filter="url(#filter0_dd_2974_21273)">
<path d="M37 33.0761H38.4C47.4566 33.0761 55 25.9414 55 16.9461C55 11.8692 50.8769 7.74609 45.8 7.74609H45.6C39.2645 7.74609 33.6895 11.2308 30.9016 16.4029C28.0357 14.1181 24.3769 12.7461 20.4 12.7461H20.2C15.1231 12.7461 11 16.8692 11 21.9461C11 30.9414 18.5433 38.0761 27.6 38.0761H29V47.4761C29 49.6829 30.7931 51.4761 33 51.4761C35.2069 51.4761 37 49.6829 37 47.4761V35.0761V33.0761Z" fill="white" stroke="white" stroke-width="6"/>
<path d="M50.998 16.944C50.998 14.0733 48.6709 11.7461 45.8002 11.7461H45.598C38.6393 11.7461 32.998 17.1761 32.998 23.8744V29.0723H38.398C45.3568 29.0723 50.998 23.6423 50.998 16.944V16.944Z" stroke="#171717" stroke-width="2"/>
<path d="M15 21.944C15 19.0733 17.3272 16.7461 20.1979 16.7461H20.4C27.3588 16.7461 33 22.1761 33 28.8744V34.0723H27.6C20.6412 34.0723 15 28.6422 15 21.944V21.944Z" stroke="#171717" stroke-width="2"/>
<path d="M32.998 28.9268V47.4721" stroke="#171717" stroke-width="2" stroke-linecap="round"/>
<path d="M22 22.7461C24 29.7461 33 32.7461 33 32.7461" stroke="#171717" stroke-width="2" stroke-linecap="round"/>
<path d="M33 28.7461C33 28.7461 42 24.7461 43.5 18.7461" stroke="#171717" stroke-width="2" stroke-linecap="round"/>
<path d="M32.1691 33.9931C30.6115 33.9931 29.0538 33.9931 27.4962 33.9931C26.2917 33.9931 25.0916 33.5312 23.936 33.2316C23.0364 32.9984 22.3637 32.4307 21.5724 31.9954C20.7491 31.5426 19.9365 31.1816 19.3126 30.4329C18.771 29.783 18.353 29.0313 17.9082 28.3165C17.2416 27.2451 16.3589 26.3155 15.7919 25.1815C14.806 23.2097 15.3863 20.5632 16.6622 18.862C18.0417 17.0226 20.5183 17.4379 22.5564 17.4379C24.7558 17.4379 26.8097 18.1943 28.6929 19.3021C29.8558 19.9862 31.0544 20.6871 31.8576 21.7992C32.7362 23.0158 32.7921 24.5139 32.7921 25.9529C32.7921 28.3043 32.8811 30.6765 32.8811 33.0141" stroke="#171717" stroke-width="2" stroke-linecap="round"/>
<path d="M33.1471 22.9564C33.1471 21.9117 32.9874 20.7258 33.2015 19.7027C33.4603 18.466 34.0379 17.3059 34.6108 16.1919C35.2931 14.8652 36.675 13.9735 37.904 13.2151C39.2541 12.3821 40.6745 11.6928 42.0675 10.9405C43.8628 9.9711 45.6919 9.78345 47.6947 9.78345C48.9484 9.78345 49.9613 10.6919 50.6616 11.6724C51.7295 13.1674 52.3725 15.0599 52.3725 16.8842C52.3725 18.0114 51.8375 18.8542 51.344 19.8412C50.7818 20.9656 50.0304 21.9873 49.2375 22.9564C48.5448 23.803 47.9684 24.7548 47.1656 25.498C46.1373 26.4502 45.0163 27.2673 43.8279 28.01C40.8053 29.8992 36.7439 30.9533 33.5031 29.0089" stroke="#171717" stroke-width="2" stroke-linecap="round"/>
<path d="M34.3047 28.2079C35.8863 28.2079 37.5394 27.4638 38.7105 26.4228C39.5676 25.6609 39.8352 24.5237 40.5351 23.6488C41.2301 22.7801 41.9352 21.8475 42.4488 20.8599C42.9108 19.9715 42.8816 19.089 43.1163 18.1501" stroke="#171717" stroke-width="2" stroke-linecap="round"/>
<path d="M31.457 32.48C29.8992 32.48 28.4274 31.5233 27.1847 30.6603C26.0289 29.8576 25.021 29.1019 24.2524 27.9011C23.6855 27.0153 23.3326 25.9176 23.1102 24.8947C23.0523 24.6284 22.9868 23.7055 22.7344 23.5793" stroke="#171717" stroke-width="2" stroke-linecap="round"/>
<path d="M32.7023 47.5222C32.7023 44.9416 32.6733 42.3591 32.7023 39.7786C32.7137 38.7649 32.9747 37.608 33.1919 36.6189C33.4785 35.313 33.5928 33.9799 33.8594 32.6779C34.1747 31.1387 34.4662 29.5542 33.9484 28.0298C33.3446 26.2519 32.7023 24.3276 32.7023 22.4224" stroke="#171717" stroke-width="2" stroke-linecap="round"/>
</g>
<defs>
<filter id="filter0_dd_2974_21273" x="0" y="0.746094" width="66" height="65.73" filterUnits="userSpaceOnUse" color-interpolation-filters="sRGB">
<feFlood flood-opacity="0" result="BackgroundImageFix"/>
<feColorMatrix in="SourceAlpha" type="matrix" values="0 0 0 0 0 0 0 0 0 0 0 0 0 0 0 0 0 0 127 0" result="hardAlpha"/>
<feOffset dy="2"/>
<feGaussianBlur stdDeviation="1"/>
<feComposite in2="hardAlpha" operator="out"/>
<feColorMatrix type="matrix" values="0 0 0 0 0 0 0 0 0 0 0 0 0 0 0 0 0 0 0.02 0"/>
<feBlend mode="normal" in2="BackgroundImageFix" result="effect1_dropShadow_2974_21273"/>
<feColorMatrix in="SourceAlpha" type="matrix" values="0 0 0 0 0 0 0 0 0 0 0 0 0 0 0 0 0 0 127 0" result="hardAlpha"/>
<feOffset dy="4"/>
<feGaussianBlur stdDeviation="4"/>
<feComposite in2="hardAlpha" operator="out"/>
<feColorMatrix type="matrix" values="0 0 0 0 0 0 0 0 0 0 0 0 0 0 0 0 0 0 0.06 0"/>
<feBlend mode="normal" in2="effect1_dropShadow_2974_21273" result="effect2_dropShadow_2974_21273"/>
<feBlend mode="normal" in="SourceGraphic" in2="effect2_dropShadow_2974_21273" result="shape"/>
</filter>
</defs>
</svg>

<svg xmlns="http://www.w3.org/2000/svg" width="66" height="67" fill="none"><g filter="url(#a)"><path fill="#fff" stroke="#fff" stroke-width="6" d="M37 33.076h1.4c9.057 0 16.6-7.135 16.6-16.13 0-5.077-4.123-9.2-9.2-9.2h-.2c-6.336 0-11.91 3.485-14.698 8.657A16.804 16.804 0 0 0 20.4 12.746h-.2c-5.077 0-9.2 4.123-9.2 9.2 0 8.995 7.543 16.13 16.6 16.13H29v9.4c0 2.207 1.793 4 4 4s4-1.793 4-4v-14.4Z"/><path stroke="#171717" stroke-width="2" d="M50.998 16.944a5.198 5.198 0 0 0-5.198-5.198h-.202c-6.959 0-12.6 5.43-12.6 12.128v5.198h5.4c6.959 0 12.6-5.43 12.6-12.128Z"/><path stroke="#171717" stroke-width="2" d="M15 21.944a5.198 5.198 0 0 1 5.198-5.198h.202c6.959 0 12.6 5.43 12.6 12.128v5.198h-5.4c-6.959 0-12.6-5.43-12.6-12.128Z"/><path stroke="#171717" stroke-linecap="round" stroke-width="2" d="M32.998 28.927v18.545M22 22.746c2 7 11 10 11 10M33 28.746s9-4 10.5-10"/><path stroke="#171717" stroke-linecap="round" stroke-width="2" d="M32.17 33.993h-4.674c-1.204 0-2.404-.462-3.56-.761-.9-.234-1.572-.801-2.364-1.237-.823-.452-1.636-.813-2.26-1.562-.541-.65-.959-1.402-1.404-2.116-.666-1.072-1.55-2.002-2.116-3.136-.986-1.971-.406-4.618.87-6.319 1.38-1.84 3.856-1.424 5.894-1.424 2.2 0 4.254.756 6.137 1.864 1.163.684 2.361 1.385 3.165 2.497.878 1.217.934 2.715.934 4.154 0 2.351.09 4.724.09 7.061M33.147 22.956c0-1.044-.16-2.23.055-3.253.258-1.237.836-2.397 1.409-3.511.682-1.327 2.064-2.219 3.293-2.977 1.35-.833 2.77-1.522 4.163-2.274 1.796-.97 3.625-1.158 5.628-1.158 1.253 0 2.266.909 2.967 1.89 1.068 1.494 1.71 3.387 1.71 5.211 0 1.127-.535 1.97-1.028 2.957-.562 1.125-1.314 2.146-2.107 3.115-.692.847-1.269 1.799-2.071 2.542-1.029.952-2.15 1.77-3.338 2.512-3.023 1.89-7.084 2.943-10.325.999"/><path stroke="#171717" stroke-linecap="round" stroke-width="2" d="M34.305 28.208c1.581 0 3.234-.744 4.406-1.785.857-.762 1.124-1.9 1.824-2.774.695-.869 1.4-1.802 1.914-2.79.462-.888.433-1.77.667-2.709M31.457 32.48c-1.558 0-3.03-.957-4.272-1.82-1.156-.802-2.164-1.558-2.933-2.759-.566-.886-.92-1.983-1.142-3.006-.058-.267-.123-1.19-.376-1.316M32.702 47.522c0-2.58-.029-5.163 0-7.743.012-1.014.273-2.171.49-3.16.286-1.306.4-2.64.667-3.941.316-1.54.607-3.124.09-4.648-.604-1.778-1.247-3.702-1.247-5.608"/></g><defs><filter id="a" width="66" height="65.73" x="0" y=".746" color-interpolation-filters="sRGB" filterUnits="userSpaceOnUse"><feFlood flood-opacity="0" result="BackgroundImageFix"/><feColorMatrix in="SourceAlpha" result="hardAlpha" values="0 0 0 0 0 0 0 0 0 0 0 0 0 0 0 0 0 0 127 0"/><feOffset dy="2"/><feGaussianBlur stdDeviation="1"/><feComposite in2="hardAlpha" operator="out"/><feColorMatrix values="0 0 0 0 0 0 0 0 0 0 0 0 0 0 0 0 0 0 0.02 0"/><feBlend in2="BackgroundImageFix" result="effect1_dropShadow_2974_21273"/><feColorMatrix in="SourceAlpha" result="hardAlpha" values="0 0 0 0 0 0 0 0 0 0 0 0 0 0 0 0 0 0 127 0"/><feOffset dy="4"/><feGaussianBlur stdDeviation="4"/><feComposite in2="hardAlpha" operator="out"/><feColorMatrix values="0 0 0 0 0 0 0 0 0 0 0 0 0 0 0 0 0 0 0.06 0"/><feBlend in2="effect1_dropShadow_2974_21273" result="effect2_dropShadow_2974_21273"/><feBlend in="SourceGraphic" in2="effect2_dropShadow_2974_21273" result="shape"/></filter></defs></svg>
